X:1
T:Harwell
T:Harwell
T:Public  domain
Z:Public  domain
%%score 1 2
L:1/8
Q:1/4=110
M:3/4
K:G
V:1 treble nm="Unnamed-000"
V:2 bass nm="Harwell, by Lowell Mason"
V:1
 [B,DB,D]3/2 z3 D x/ | [DG] [GB] [FA]2 [FA]2 | [FdFd]3/2 z3 [DG] x/ | [DB] [FA] G4 | %4
 [B,DB,D]3/2 z3 D x/ | [DG] [GB] [FA]2 [FA]2 | [FdFd]3/2 z3 [DG] x/ | [DB] [FA] G4 | %8
 [AcGB]3/2 z [GB] [Ac] [Bd] x/ | [Ac]2 [FA]2 [BdAc]3/2 z/ | [GB] [Ac] [Bd] [ce] [Bd]2 | %11
 [GB]2 [B,DB,D]3/2 z2 x/ | [DG] D [DG] [GB] [FA]2 | [FA]2 [FdFd]3/2 z2 x/ | %14
 [Gd] [DG] [DB] [FA] [B,G]2- | [B,G]6 |] %16
V:2
 G,3/2 G,/ [G,B,]3 [G,B,] | [B,D] [G,D] [D,D]2 [D,D]2 | [D,A,]3/2 [D,A,]/ [G,B,]3 [B,,D] | %3
 [D,D] [D,C] [G,,G,B,]4 | G,3/2 G,/ [G,B,]3 [G,B,] | [B,D] [G,D] [D,D]2 [D,D]2 | %6
 [D,A,]3/2 [D,A,]/ [G,B,]3 [B,,D] | [D,D] [D,C] [G,,G,B,]4 | %8
 [D,D]3/2 [D,D]/ [D,D] [D,D] [D,D] [D,D] | [D,D]2 [D,D]2 G,3/2 G,/ | G, G, G, G, G,2- | %11
 G,2 G,3/2 G,/ [G,B,]2- | [G,B,] [G,B,] [B,D] [G,D] [D,D]2 | [D,D]2 [D,A,]3/2 [D,A,]/ [G,B,]2- | %14
 [G,B,] [B,,D] [D,D] [D,C] [G,,G,]2- | [G,,G,]6 |] %16

